ids-wordpress/site-IdS/assets/images/projetos/icones-ferramentasetec/Illustrator.svg

<svg width="36" height="35" viewBox="0 0 36 35" fill="none" xmlns="http://www.w3.org/2000/svg">
<g clip-path="url(#clip0_694_1586)">
<path d="M15.887 0.0879128C27.8133 -0.911653 37.0935 8.49543 35.2719 20.4813C33.2817 33.5772 17.0958 39.3374 6.85155 31.0947C-5.19017 21.4048 0.287142 1.39572 15.887 0.0879128ZM16.6468 1.22701C0.719697 2.37245 -4.11196 23.1464 9.20459 31.2761C21.1791 38.5864 36.1371 28.8774 34.1316 14.9748C32.9164 6.55084 25.0568 0.623213 16.6468 1.22701Z" fill="#F75705"/>
<path d="M17.5423 21.3563H13.1407C12.5508 22.6755 12.5736 24.8408 10.8485 25.2112C9.30857 25.541 7.87138 24.8472 8.2367 23.1068C9.88446 18.9906 10.9005 14.3682 12.5178 10.2799C12.9758 9.12178 13.5593 8.63848 14.8303 8.53574C15.8654 8.45202 17.1744 8.55603 17.7935 9.5112C19.0822 13.8279 21.174 18.2878 22.3156 22.6058C22.634 23.8108 22.6315 24.9816 21.1435 25.2366C18.2983 25.7237 18.2945 23.3237 17.5436 21.3563H17.5423ZM15.363 9.60253C14.3686 9.60507 13.9715 9.81183 13.5694 10.696C11.8329 14.5141 11.0096 19.4117 9.34662 23.3364C9.12845 24.1787 10.0126 24.2459 10.6494 24.1229C11.6489 23.9313 11.8113 20.5851 12.4899 20.2616C12.599 20.2096 12.6878 20.2083 12.8007 20.1918C14.3559 19.9825 16.4641 20.3149 18.0751 20.254C18.9782 20.5508 19.0366 23.9339 20.0349 24.1229C20.7528 24.2586 21.6129 24.147 21.3072 23.2349L16.9905 10.4397C16.7203 9.76236 16.0239 9.60126 15.363 9.60253Z" fill="#F75705"/>
<path d="M24.878 12.8779C26.0564 12.633 27.1041 13.2305 27.3236 14.4292C27.0471 17.3125 27.6889 20.8719 27.3096 23.6714C27.028 25.7517 23.7604 25.602 23.5143 23.5585C23.1731 20.726 23.768 17.2186 23.5258 14.3125C23.6171 13.7201 24.2881 12.9984 24.878 12.8766V12.8779ZM25.3765 13.9003C24.7067 13.9358 24.5913 14.5066 24.5342 15.0685C24.3439 16.9789 24.3515 21.0076 24.5279 22.9281C24.6712 24.501 26.1376 24.3462 26.2999 23.2959C26.1312 20.6004 26.5498 17.5903 26.3139 14.9341C26.2644 14.3721 26.0272 13.866 25.3765 13.9003Z" fill="#F75705"/>
<path d="M24.7511 8.44191C27.9134 7.7861 28.2394 12.4288 25.2268 12.3501C22.8357 12.2867 22.8319 8.84021 24.7511 8.44191ZM25.0035 9.57847C24.3185 9.78016 24.3426 11.0715 25.1088 11.2021C26.6196 11.4584 26.4661 9.14845 25.0035 9.57847Z" fill="#F75705"/>
<path d="M17.5284 18.5201C17.2671 18.7472 13.5314 18.7611 13.1534 18.5835C12.7398 18.3907 12.8527 18.033 12.9276 17.6563C13.2967 15.8068 14.4637 13.724 14.8037 11.8022C15.2413 11.154 15.67 11.3557 15.9161 12.0178C16.3664 13.2305 17.4903 16.4829 17.659 17.6309C17.7047 17.9429 17.7123 18.2474 17.5284 18.5188V18.5201ZM16.4197 17.537L15.3428 13.9878L14.2658 17.537H16.421H16.4197Z" fill="#F75705"/>
</g>
<defs>
<clipPath id="clip0_694_1586">
<rect width="35.1966" height="34.9087" fill="white" transform="translate(0.30484 0.0141602)"/>
</clipPath>
</defs>
</svg>

<svg xmlns="http://www.w3.org/2000/svg" width="36" height="35" fill="none"><g fill="#F75705" clip-path="url(#a)"><path d="M15.887.088c11.926-1 21.206 8.407 19.385 20.393-1.99 13.096-18.176 18.856-28.42 10.614C-5.19 21.405.287 1.395 15.887.088Zm.76 1.139C.72 2.372-4.112 23.147 9.205 31.277c11.974 7.31 26.932-2.4 24.927-16.302C32.916 6.55 25.057.623 16.647 1.227Z"/><path d="M17.542 21.356h-4.401c-.59 1.32-.567 3.485-2.293 3.855-1.54.33-2.977-.364-2.611-2.104 1.647-4.116 2.663-8.739 4.28-12.827.459-1.158 1.042-1.642 2.313-1.744 1.035-.084 2.344.02 2.964.975 1.288 4.317 3.38 8.777 4.522 13.095.318 1.205.316 2.376-1.172 2.63-2.846.488-2.85-1.912-3.6-3.88h-.002ZM15.363 9.603c-.994.002-1.391.209-1.794 1.093-1.736 3.818-2.56 8.716-4.222 12.64-.219.843.666.91 1.302.787 1-.192 1.162-3.538 1.84-3.861.11-.052.199-.054.312-.07 1.555-.21 3.663.123 5.274.062.903.297.962 3.68 1.96 3.869.718.136 1.578.024 1.272-.888L16.991 10.44c-.27-.678-.967-.839-1.628-.837ZM24.878 12.878c1.178-.245 2.226.352 2.446 1.551-.277 2.883.365 6.443-.014 9.242-.282 2.08-3.55 1.931-3.796-.113-.34-2.832.254-6.34.012-9.245.091-.593.762-1.315 1.352-1.436Zm.498 1.022c-.67.036-.785.607-.842 1.168-.19 1.91-.182 5.94-.006 7.86.143 1.573 1.61 1.418 1.772.368-.169-2.696.25-5.706.014-8.362-.05-.562-.287-1.068-.938-1.034ZM24.751 8.442c3.162-.656 3.488 3.987.476 3.908-2.391-.063-2.395-3.51-.476-3.908Zm.252 1.136c-.684.202-.66 1.494.106 1.624 1.51.256 1.357-2.054-.106-1.624Z"/><path d="M17.528 18.52c-.26.227-3.997.241-4.375.064-.413-.193-.3-.551-.225-.928.369-1.85 1.536-3.932 1.876-5.854.437-.648.866-.446 1.112.216.45 1.212 1.574 4.465 1.743 5.613.046.312.053.616-.13.888v.001Zm-1.108-.983-1.077-3.55-1.077 3.55h2.155-.001Z"/></g><defs><clipPath id="a"><path fill="#fff" d="M.305.014h35.197v34.91H.305z"/></clipPath></defs></svg>
